svg/fluentui-system-icons/ic_fluent_card_ui_20_filled.svg

<svg width="20" height="20" viewBox="0 0 20 20" fill="none" xmlns="http://www.w3.org/2000/svg">
<path d="M2 6.5C2 5.11929 3.11929 4 4.5 4H15.5C16.8807 4 18 5.11929 18 6.5V13.5C18 14.8807 16.8807 16 15.5 16H4.5C3.11929 16 2 14.8807 2 13.5V6.5ZM9.5 6H4.5C4.22386 6 4 6.22386 4 6.5C4 6.77614 4.22386 7 4.5 7H9.5C9.77614 7 10 6.77614 10 6.5C10 6.22386 9.77614 6 9.5 6ZM12.5 8H4.5C4.22386 8 4 8.22386 4 8.5C4 8.77614 4.22386 9 4.5 9H12.5C12.7761 9 13 8.77614 13 8.5C13 8.22386 12.7761 8 12.5 8ZM5 11C4.44772 11 4 11.4477 4 12V13C4 13.5523 4.44772 14 5 14H9C9.55228 14 10 13.5523 10 13V12C10 11.4477 9.55228 11 9 11H5Z" fill="#212121"/>
</svg>

<svg xmlns="http://www.w3.org/2000/svg" width="20" height="20"><path d="M2 6.5A2.5 2.5 0 0 1 4.5 4h11A2.5 2.5 0 0 1 18 6.5v7a2.5 2.5 0 0 1-2.5 2.5h-11A2.5 2.5 0 0 1 2 13.5v-7ZM9.5 6h-5a.5.5 0 0 0 0 1h5a.5.5 0 0 0 0-1Zm3 2h-8a.5.5 0 0 0 0 1h8a.5.5 0 0 0 0-1ZM5 11a1 1 0 0 0-1 1v1a1 1 0 0 0 1 1h4a1 1 0 0 0 1-1v-1a1 1 0 0 0-1-1H5Z"/></svg>
